images/svg/instagram_icon.svg

<svg viewBox="0 0 64 64" xmlns="http://www.w3.org/2000/svg"><defs><radialGradient cx="-578.95" cy="-837.6" gradientTransform="matrix(.75 0 0 .75 499.5 629.5)" gradientUnits="userSpaceOnUse" id="radial-gradient" r="197.06"><stop offset="0" stop-color="#f9ed32"/><stop offset=".36" stop-color="#ee2a7b"/><stop offset=".44" stop-color="#d22a8a"/><stop offset=".6" stop-color="#8b2ab2"/><stop offset=".83" stop-color="#1b2af0"/><stop offset=".88" stop-color="#002aff"/></radialGradient><style>.cls-2{fill:#fff}</style></defs><g data-name="3-instagram" id="_3-instagram"><rect height="64" rx="11.2" ry="11.2" transform="rotate(180 32 32)" width="64" fill="url(#radial-gradient)"/><path class="cls-2" d="M44 56H20A12 12 0 018 44V20A12 12 0 0120 8h24a12 12 0 0112 12v24a12 12 0 01-12 12zM20 12.8a7.21 7.21 0 00-7.2 7.2v24a7.21 7.21 0 007.2 7.2h24a7.21 7.21 0 007.2-7.2V20a7.21 7.21 0 00-7.2-7.2z"/><path class="cls-2" d="M32 45.6A13.6 13.6 0 1145.6 32 13.61 13.61 0 0132 45.6zm0-22.4a8.8 8.8 0 108.8 8.8 8.81 8.81 0 00-8.8-8.8z"/><circle class="cls-2" cx="45.6" cy="19.2" r="2.4"/></g></svg>

<?xml version="1.0" ?><svg viewBox="0 0 64 64" xmlns="http://www.w3.org/2000/svg" xmlns:xlink="http://www.w3.org/1999/xlink"><defs><style>.cls-1{fill:url(#radial-gradient);}.cls-2{fill:#fff;}</style><radialGradient cx="-578.95" cy="-837.6" gradientTransform="translate(499.5 629.5) scale(0.75)" gradientUnits="userSpaceOnUse" id="radial-gradient" r="197.06"><stop offset="0" stop-color="#f9ed32"/><stop offset="0.36" stop-color="#ee2a7b"/><stop offset="0.44" stop-color="#d22a8a"/><stop offset="0.6" stop-color="#8b2ab2"/><stop offset="0.83" stop-color="#1b2af0"/><stop offset="0.88" stop-color="#002aff"/></radialGradient></defs><title/><g data-name="3-instagram" id="_3-instagram"><rect class="cls-1" height="64" rx="11.2" ry="11.2" transform="translate(64 64) rotate(180)" width="64"/><path class="cls-2" d="M44,56H20A12,12,0,0,1,8,44V20A12,12,0,0,1,20,8H44A12,12,0,0,1,56,20V44A12,12,0,0,1,44,56ZM20,12.8A7.21,7.21,0,0,0,12.8,20V44A7.21,7.21,0,0,0,20,51.2H44A7.21,7.21,0,0,0,51.2,44V20A7.21,7.21,0,0,0,44,12.8Z"/><path class="cls-2" d="M32,45.6A13.6,13.6,0,1,1,45.6,32,13.61,13.61,0,0,1,32,45.6Zm0-22.4A8.8,8.8,0,1,0,40.8,32,8.81,8.81,0,0,0,32,23.2Z"/><circle class="cls-2" cx="45.6" cy="19.2" r="2.4"/></g></svg>
